documentation/public/assets/images/tooltip.svg

<svg width="153" height="48" viewBox="0 0 153 48" fill="none" xmlns="http://www.w3.org/2000/svg">
<g filter="url(#filter0_dd_821_54474)">
<path d="M76.5909 2L81.5 7L71.5 7L76.5909 2Z" fill="#333333"/>
<rect x="3" y="7" width="147" height="36" rx="4" fill="#333333"/>
<path d="M19.7727 20.6136V19.3636H28.5V20.6136H24.8409V31H23.4318V20.6136H19.7727ZM31.8338 25.75V31H30.4929V19.3636H31.8338V23.6364H31.9474C32.152 23.1856 32.4588 22.8277 32.8679 22.5625C33.2808 22.2936 33.83 22.1591 34.5156 22.1591C35.1103 22.1591 35.6312 22.2784 36.0781 22.517C36.5251 22.7519 36.8717 23.1136 37.1179 23.6023C37.3679 24.0871 37.4929 24.7045 37.4929 25.4545V31H36.152V25.5455C36.152 24.8523 35.9721 24.3163 35.6122 23.9375C35.2562 23.5549 34.7618 23.3636 34.1293 23.3636C33.6899 23.3636 33.2959 23.4564 32.9474 23.642C32.6027 23.8277 32.33 24.0985 32.1293 24.4545C31.9323 24.8106 31.8338 25.2424 31.8338 25.75ZM39.946 31V22.2727H41.2869V31H39.946ZM40.6278 20.8182C40.3665 20.8182 40.1411 20.7292 39.9517 20.5511C39.7661 20.3731 39.6733 20.1591 39.6733 19.9091C39.6733 19.6591 39.7661 19.4451 39.9517 19.267C40.1411 19.089 40.3665 19 40.6278 19C40.8892 19 41.1127 19.089 41.2983 19.267C41.4877 19.4451 41.5824 19.6591 41.5824 19.9091C41.5824 20.1591 41.4877 20.3731 41.2983 20.5511C41.1127 20.7292 40.8892 20.8182 40.6278 20.8182ZM49.9247 24.2273L48.7202 24.5682C48.6444 24.3674 48.5327 24.1723 48.3849 23.983C48.241 23.7898 48.044 23.6307 47.794 23.5057C47.544 23.3807 47.224 23.3182 46.8338 23.3182C46.2997 23.3182 45.8546 23.4413 45.4986 23.6875C45.1463 23.9299 44.9702 24.2386 44.9702 24.6136C44.9702 24.947 45.0914 25.2102 45.3338 25.4034C45.5762 25.5966 45.955 25.7576 46.4702 25.8864L47.7656 26.2045C48.5459 26.3939 49.1274 26.6837 49.5099 27.0739C49.8925 27.4602 50.0838 27.9583 50.0838 28.5682C50.0838 29.0682 49.9399 29.5152 49.652 29.9091C49.3679 30.303 48.9702 30.6136 48.4588 30.8409C47.9474 31.0682 47.3527 31.1818 46.6747 31.1818C45.7846 31.1818 45.0478 30.9886 44.4645 30.6023C43.8812 30.2159 43.5118 29.6515 43.3565 28.9091L44.6293 28.5909C44.7505 29.0606 44.9796 29.4129 45.3168 29.6477C45.6577 29.8826 46.1027 30 46.652 30C47.277 30 47.7732 29.8674 48.1406 29.6023C48.5118 29.3333 48.6974 29.0114 48.6974 28.6364C48.6974 28.3333 48.5914 28.0795 48.3793 27.875C48.1671 27.6667 47.8414 27.5114 47.402 27.4091L45.9474 27.0682C45.1482 26.8788 44.5611 26.5852 44.1861 26.1875C43.8149 25.786 43.6293 25.2841 43.6293 24.6818C43.6293 24.1894 43.7675 23.7538 44.044 23.375C44.3243 22.9962 44.705 22.6989 45.1861 22.483C45.6709 22.267 46.2202 22.1591 46.8338 22.1591C47.6974 22.1591 48.3755 22.3485 48.8679 22.7273C49.3641 23.1061 49.7164 23.6061 49.9247 24.2273ZM56.6023 31V22.2727H57.9432V31H56.6023ZM57.2841 20.8182C57.0227 20.8182 56.7973 20.7292 56.608 20.5511C56.4223 20.3731 56.3295 20.1591 56.3295 19.9091C56.3295 19.6591 56.4223 19.4451 56.608 19.267C56.7973 19.089 57.0227 19 57.2841 19C57.5455 19 57.7689 19.089 57.9545 19.267C58.1439 19.4451 58.2386 19.6591 58.2386 19.9091C58.2386 20.1591 58.1439 20.3731 57.9545 20.5511C57.7689 20.7292 57.5455 20.8182 57.2841 20.8182ZM66.581 24.2273L65.3764 24.5682C65.3007 24.3674 65.1889 24.1723 65.0412 23.983C64.8973 23.7898 64.7003 23.6307 64.4503 23.5057C64.2003 23.3807 63.8802 23.3182 63.4901 23.3182C62.956 23.3182 62.5109 23.4413 62.1548 23.6875C61.8026 23.9299 61.6264 24.2386 61.6264 24.6136C61.6264 24.947 61.7476 25.2102 61.9901 25.4034C62.2325 25.5966 62.6113 25.7576 63.1264 25.8864L64.4219 26.2045C65.2022 26.3939 65.7836 26.6837 66.1662 27.0739C66.5488 27.4602 66.7401 27.9583 66.7401 28.5682C66.7401 29.0682 66.5961 29.5152 66.3082 29.9091C66.0241 30.303 65.6264 30.6136 65.1151 30.8409C64.6037 31.0682 64.009 31.1818 63.331 31.1818C62.4408 31.1818 61.7041 30.9886 61.1207 30.6023C60.5374 30.2159 60.1681 29.6515 60.0128 28.9091L61.2855 28.5909C61.4067 29.0606 61.6359 29.4129 61.973 29.6477C62.3139 29.8826 62.759 30 63.3082 30C63.9332 30 64.4295 29.8674 64.7969 29.6023C65.1681 29.3333 65.3537 29.0114 65.3537 28.6364C65.3537 28.3333 65.2476 28.0795 65.0355 27.875C64.8234 27.6667 64.4976 27.5114 64.0582 27.4091L62.6037 27.0682C61.8045 26.8788 61.2173 26.5852 60.8423 26.1875C60.4711 25.786 60.2855 25.2841 60.2855 24.6818C60.2855 24.1894 60.4238 23.7538 60.7003 23.375C60.9806 22.9962 61.3613 22.6989 61.8423 22.483C62.3272 22.267 62.8764 22.1591 63.4901 22.1591C64.3537 22.1591 65.0317 22.3485 65.5241 22.7273C66.0204 23.1061 66.3726 23.6061 66.581 24.2273ZM75.8267 31.2045C75.2737 31.2045 74.7718 31.1004 74.321 30.892C73.8703 30.6799 73.5123 30.375 73.2472 29.9773C72.982 29.5758 72.8494 29.0909 72.8494 28.5227C72.8494 28.0227 72.9479 27.6174 73.1449 27.3068C73.3419 26.9924 73.6051 26.7462 73.9347 26.5682C74.2642 26.3902 74.6278 26.2576 75.0256 26.1705C75.4271 26.0795 75.8305 26.0076 76.2358 25.9545C76.7661 25.8864 77.196 25.8352 77.5256 25.8011C77.8589 25.7633 78.1013 25.7008 78.2528 25.6136C78.4081 25.5265 78.4858 25.375 78.4858 25.1591V25.1136C78.4858 24.553 78.3324 24.1174 78.0256 23.8068C77.7225 23.4962 77.2623 23.3409 76.6449 23.3409C76.0047 23.3409 75.5028 23.4811 75.1392 23.7614C74.7756 24.0417 74.5199 24.3409 74.3722 24.6591L73.0994 24.2045C73.3267 23.6742 73.6297 23.2614 74.0085 22.9659C74.3911 22.6667 74.8078 22.4583 75.2585 22.3409C75.7131 22.2197 76.16 22.1591 76.5994 22.1591C76.8797 22.1591 77.2017 22.1932 77.5653 22.2614C77.9328 22.3258 78.2869 22.4602 78.6278 22.6648C78.9725 22.8693 79.2585 23.178 79.4858 23.5909C79.7131 24.0038 79.8267 24.5568 79.8267 25.25V31H78.4858V29.8182H78.4176C78.3267 30.0076 78.1752 30.2102 77.9631 30.4261C77.7509 30.642 77.4688 30.8258 77.1165 30.9773C76.7642 31.1288 76.3343 31.2045 75.8267 31.2045ZM76.0312 30C76.5616 30 77.0085 29.8958 77.3722 29.6875C77.7396 29.4792 78.0161 29.2102 78.2017 28.8807C78.3911 28.5511 78.4858 28.2045 78.4858 27.8409V26.6136C78.429 26.6818 78.304 26.7443 78.1108 26.8011C77.9214 26.8542 77.7017 26.9015 77.4517 26.9432C77.2055 26.9811 76.965 27.0152 76.7301 27.0455C76.4991 27.072 76.3116 27.0947 76.1676 27.1136C75.8191 27.1591 75.4934 27.233 75.1903 27.3352C74.8911 27.4337 74.6487 27.5833 74.4631 27.7841C74.2813 27.9811 74.1903 28.25 74.1903 28.5909C74.1903 29.0568 74.3627 29.4091 74.7074 29.6477C75.0559 29.8826 75.4972 30 76.0312 30ZM90.5696 22.2727V23.4091H86.0469V22.2727H90.5696ZM87.3651 20.1818H88.706V28.5C88.706 28.8788 88.7609 29.1629 88.8707 29.3523C88.9844 29.5379 89.1283 29.6629 89.3026 29.7273C89.4806 29.7879 89.6681 29.8182 89.8651 29.8182C90.0128 29.8182 90.134 29.8106 90.2287 29.7955C90.3234 29.7765 90.3991 29.7614 90.456 29.75L90.7287 30.9545C90.6378 30.9886 90.5109 31.0227 90.348 31.0568C90.1851 31.0947 89.9787 31.1136 89.7287 31.1136C89.3499 31.1136 88.9787 31.0322 88.6151 30.8693C88.2552 30.7064 87.956 30.4583 87.7173 30.125C87.4825 29.7917 87.3651 29.3712 87.3651 28.8636V20.1818ZM96.0384 31.1818C95.2505 31.1818 94.5592 30.9943 93.9645 30.6193C93.3736 30.2443 92.9115 29.7197 92.5781 29.0455C92.2486 28.3712 92.0838 27.5833 92.0838 26.6818C92.0838 25.7727 92.2486 24.9792 92.5781 24.3011C92.9115 23.6231 93.3736 23.0966 93.9645 22.7216C94.5592 22.3466 95.2505 22.1591 96.0384 22.1591C96.8262 22.1591 97.5156 22.3466 98.1065 22.7216C98.7012 23.0966 99.1634 23.6231 99.4929 24.3011C99.8262 24.9792 99.9929 25.7727 99.9929 26.6818C99.9929 27.5833 99.8262 28.3712 99.4929 29.0455C99.1634 29.7197 98.7012 30.2443 98.1065 30.6193C97.5156 30.9943 96.8262 31.1818 96.0384 31.1818ZM96.0384 29.9773C96.6368 29.9773 97.1293 29.8239 97.5156 29.517C97.902 29.2102 98.188 28.8068 98.3736 28.3068C98.5592 27.8068 98.652 27.2652 98.652 26.6818C98.652 26.0985 98.5592 25.5549 98.3736 25.0511C98.188 24.5473 97.902 24.1402 97.5156 23.8295C97.1293 23.5189 96.6368 23.3636 96.0384 23.3636C95.4399 23.3636 94.9474 23.5189 94.5611 23.8295C94.1747 24.1402 93.8887 24.5473 93.7031 25.0511C93.5175 25.5549 93.4247 26.0985 93.4247 26.6818C93.4247 27.2652 93.5175 27.8068 93.7031 28.3068C93.8887 28.8068 94.1747 29.2102 94.5611 29.517C94.9474 29.8239 95.4399 29.9773 96.0384 29.9773ZM105.585 31.1818C104.797 31.1818 104.106 30.9943 103.511 30.6193C102.92 30.2443 102.458 29.7197 102.125 29.0455C101.795 28.3712 101.631 27.5833 101.631 26.6818C101.631 25.7727 101.795 24.9792 102.125 24.3011C102.458 23.6231 102.92 23.0966 103.511 22.7216C104.106 22.3466 104.797 22.1591 105.585 22.1591C106.373 22.1591 107.063 22.3466 107.653 22.7216C108.248 23.0966 108.71 23.6231 109.04 24.3011C109.373 24.9792 109.54 25.7727 109.54 26.6818C109.54 27.5833 109.373 28.3712 109.04 29.0455C108.71 29.7197 108.248 30.2443 107.653 30.6193C107.063 30.9943 106.373 31.1818 105.585 31.1818ZM105.585 29.9773C106.184 29.9773 106.676 29.8239 107.062 29.517C107.449 29.2102 107.735 28.8068 107.92 28.3068C108.106 27.8068 108.199 27.2652 108.199 26.6818C108.199 26.0985 108.106 25.5549 107.92 25.0511C107.735 24.5473 107.449 24.1402 107.062 23.8295C106.676 23.5189 106.184 23.3636 105.585 23.3636C104.987 23.3636 104.494 23.5189 104.108 23.8295C103.722 24.1402 103.436 24.5473 103.25 25.0511C103.064 25.5549 102.972 26.0985 102.972 26.6818C102.972 27.2652 103.064 27.8068 103.25 28.3068C103.436 28.8068 103.722 29.2102 104.108 29.517C104.494 29.8239 104.987 29.9773 105.585 29.9773ZM112.928 19.3636V31H111.587V19.3636H112.928ZM119.179 22.2727V23.4091H114.656V22.2727H119.179ZM115.974 20.1818H117.315V28.5C117.315 28.8788 117.37 29.1629 117.48 29.3523C117.594 29.5379 117.738 29.6629 117.912 29.7273C118.09 29.7879 118.277 29.8182 118.474 29.8182C118.622 29.8182 118.743 29.8106 118.838 29.7955C118.933 29.7765 119.009 29.7614 119.065 29.75L119.338 30.9545C119.247 30.9886 119.12 31.0227 118.957 31.0568C118.795 31.0947 118.588 31.1136 118.338 31.1136C117.959 31.1136 117.588 31.0322 117.224 30.8693C116.865 30.7064 116.565 30.4583 116.327 30.125C116.092 29.7917 115.974 29.3712 115.974 28.8636V20.1818ZM121.196 31V22.2727H122.537V31H121.196ZM121.878 20.8182C121.616 20.8182 121.391 20.7292 121.202 20.5511C121.016 20.3731 120.923 20.1591 120.923 19.9091C120.923 19.6591 121.016 19.4451 121.202 19.267C121.391 19.089 121.616 19 121.878 19C122.139 19 122.363 19.089 122.548 19.267C122.738 19.4451 122.832 19.6591 122.832 19.9091C122.832 20.1591 122.738 20.3731 122.548 20.5511C122.363 20.7292 122.139 20.8182 121.878 20.8182ZM124.993 34.2727V22.2727H126.288V23.6591H126.447C126.546 23.5076 126.682 23.3144 126.857 23.0795C127.035 22.8409 127.288 22.6288 127.618 22.4432C127.951 22.2538 128.402 22.1591 128.97 22.1591C129.705 22.1591 130.353 22.3428 130.913 22.7102C131.474 23.0777 131.911 23.5985 132.226 24.2727C132.54 24.947 132.697 25.7424 132.697 26.6591C132.697 27.5833 132.54 28.3845 132.226 29.0625C131.911 29.7367 131.476 30.2595 130.919 30.6307C130.362 30.9981 129.72 31.1818 128.993 31.1818C128.432 31.1818 127.983 31.089 127.646 30.9034C127.309 30.714 127.05 30.5 126.868 30.2614C126.686 30.0189 126.546 29.8182 126.447 29.6591H126.334V34.2727H124.993ZM126.311 26.6364C126.311 27.2955 126.408 27.8769 126.601 28.3807C126.794 28.8807 127.076 29.2727 127.447 29.5568C127.819 29.8371 128.273 29.9773 128.811 29.9773C129.372 29.9773 129.839 29.8295 130.214 29.5341C130.593 29.2348 130.877 28.8333 131.067 28.3295C131.26 27.822 131.357 27.2576 131.357 26.6364C131.357 26.0227 131.262 25.4697 131.072 24.9773C130.887 24.4811 130.605 24.089 130.226 23.8011C129.851 23.5095 129.379 23.3636 128.811 23.3636C128.266 23.3636 127.807 23.5019 127.436 23.7784C127.065 24.0511 126.785 24.4337 126.595 24.9261C126.406 25.4148 126.311 25.9848 126.311 26.6364Z" fill="white"/>
</g>
<defs>
<filter id="filter0_dd_821_54474" x="0" y="0" width="153" height="48" filterUnits="userSpaceOnUse" color-interpolation-filters="sRGB">
<feFlood flood-opacity="0" result="BackgroundImageFix"/>
<feColorMatrix in="SourceAlpha" type="matrix" values="0 0 0 0 0 0 0 0 0 0 0 0 0 0 0 0 0 0 127 0" result="hardAlpha"/>
<feOffset dy="2"/>
<feGaussianBlur stdDeviation="1.5"/>
<feColorMatrix type="matrix" values="0 0 0 0 0.2 0 0 0 0 0.2 0 0 0 0 0.2 0 0 0 0.15 0"/>
<feBlend mode="normal" in2="BackgroundImageFix" result="effect1_dropShadow_821_54474"/>
<feColorMatrix in="SourceAlpha" type="matrix" values="0 0 0 0 0 0 0 0 0 0 0 0 0 0 0 0 0 0 127 0" result="hardAlpha"/>
<feOffset dy="1"/>
<feGaussianBlur stdDeviation="1.5"/>
<feColorMatrix type="matrix" values="0 0 0 0 0.2 0 0 0 0 0.2 0 0 0 0 0.2 0 0 0 0.1 0"/>
<feBlend mode="normal" in2="effect1_dropShadow_821_54474" result="effect2_dropShadow_821_54474"/>
<feBlend mode="normal" in="SourceGraphic" in2="effect2_dropShadow_821_54474" result="shape"/>
</filter>
</defs>
</svg>

<svg width="153" height="48" fill="none" xmlns="http://www.w3.org/2000/svg"><g filter="url(#a)"><path d="m76.6 2 4.9 5h-10l5.1-5Z" fill="#333"/><rect x="3" y="7" width="147" height="36" rx="4" fill="#333"/><path d="M19.77 20.61v-1.25h8.73v1.25h-3.66V31h-1.4V20.61h-3.67Zm12.06 5.14V31H30.5V19.36h1.34v4.28h.12c.2-.45.5-.81.92-1.08.41-.27.96-.4 1.65-.4.59 0 1.11.12 1.56.36.45.23.8.6 1.04 1.08.25.49.37 1.1.37 1.85V31h-1.34v-5.45c0-.7-.18-1.23-.54-1.61a1.93 1.93 0 0 0-1.48-.58c-.44 0-.83.1-1.18.28-.35.19-.62.46-.82.81-.2.36-.3.8-.3 1.3ZM39.95 31v-8.73h1.34V31h-1.34Zm.68-10.18a.95.95 0 0 1-.68-.27.86.86 0 0 1-.28-.64c0-.25.1-.46.28-.64a.95.95 0 0 1 .68-.27c.26 0 .48.09.67.27.19.18.28.39.28.64s-.1.46-.28.64a.93.93 0 0 1-.67.27Zm9.3 3.4-1.21.35c-.08-.2-.19-.4-.34-.59a1.56 1.56 0 0 0-.59-.47 2.15 2.15 0 0 0-.96-.2c-.53 0-.98.13-1.33.38-.35.24-.53.55-.53.92 0 .34.12.6.36.8.25.19.63.35 1.14.48l1.3.31c.78.2 1.36.48 1.74.87.38.39.57.89.57 1.5 0 .5-.14.95-.43 1.34-.28.4-.68.7-1.2.93-.5.23-1.1.34-1.78.34-.89 0-1.62-.2-2.2-.58a2.57 2.57 0 0 1-1.11-1.7l1.27-.3c.12.46.35.81.69 1.05.34.23.78.35 1.33.35a2.5 2.5 0 0 0 1.5-.4c.36-.27.55-.59.55-.96 0-.3-.1-.56-.32-.77-.21-.2-.54-.36-.98-.46l-1.45-.34a3.47 3.47 0 0 1-1.76-.88c-.38-.4-.56-.9-.56-1.5 0-.5.14-.94.41-1.32a2.9 2.9 0 0 1 1.15-.89 4 4 0 0 1 1.64-.32c.87 0 1.55.19 2.04.57.5.38.85.88 1.05 1.5ZM56.6 31v-8.73h1.34V31H56.6Zm.68-10.18a.95.95 0 0 1-.67-.27.86.86 0 0 1-.28-.64c0-.25.1-.46.28-.64a.95.95 0 0 1 .67-.27.9.9 0 0 1 .67.27.85.85 0 0 1 0 1.28.93.93 0 0 1-.67.27Zm9.3 3.4-1.2.35c-.08-.2-.2-.4-.34-.59a1.56 1.56 0 0 0-.59-.47 2.15 2.15 0 0 0-.96-.2c-.53 0-.98.13-1.34.38-.35.24-.52.55-.52.92 0 .34.12.6.36.8.24.19.62.35 1.14.48l1.3.31c.77.2 1.35.48 1.74.87.38.39.57.89.57 1.5 0 .5-.14.95-.43 1.34-.29.4-.68.7-1.2.93-.5.23-1.1.34-1.78.34a3.9 3.9 0 0 1-2.2-.58A2.57 2.57 0 0 1 60 28.9l1.28-.3c.12.46.35.81.68 1.05.34.23.79.35 1.34.35a2.5 2.5 0 0 0 1.49-.4c.37-.27.55-.59.55-.96 0-.3-.1-.56-.31-.77-.22-.2-.54-.36-.98-.46l-1.46-.34a3.47 3.47 0 0 1-1.76-.88c-.37-.4-.55-.9-.55-1.5 0-.5.13-.94.41-1.32.28-.37.66-.67 1.14-.89a4 4 0 0 1 1.65-.32c.86 0 1.54.19 2.03.57.5.38.85.88 1.06 1.5Zm9.25 6.98c-.56 0-1.06-.1-1.5-.3a2.56 2.56 0 0 1-1.08-.92c-.27-.4-.4-.89-.4-1.46 0-.5.1-.9.3-1.21.2-.32.46-.56.78-.74.33-.18.7-.31 1.1-.4.4-.1.8-.16 1.2-.22l1.3-.15c.33-.04.57-.1.72-.19.16-.08.24-.23.24-.45v-.05c0-.56-.16-1-.46-1.3-.3-.31-.77-.47-1.39-.47a2.39 2.39 0 0 0-2.27 1.32l-1.27-.46a3.06 3.06 0 0 1 2.16-1.86 5.19 5.19 0 0 1 2.3-.08c.37.07.73.2 1.07.4.34.2.63.52.86.93.22.41.34.97.34 1.66V31h-1.34v-1.18h-.07a2.62 2.62 0 0 1-1.3 1.16c-.36.15-.79.22-1.3.22Zm.2-1.2c.53 0 .98-.1 1.34-.31a2.13 2.13 0 0 0 1.12-1.85v-1.23a.99.99 0 0 1-.38.2c-.19.04-.4.1-.66.13a29.81 29.81 0 0 1-1.28.17c-.35.05-.68.12-.98.23-.3.1-.54.24-.73.44-.18.2-.27.47-.27.81 0 .47.17.82.52 1.06.35.23.79.35 1.32.35Zm14.54-7.73v1.14h-4.52v-1.14h4.52Zm-3.2-2.09h1.34v8.32c0 .38.05.66.16.85.11.19.26.31.43.38.18.06.37.09.57.09.14 0 .26 0 .36-.02l.23-.05.27 1.2a2.73 2.73 0 0 1-1 .16 2.7 2.7 0 0 1-1.11-.24 2.21 2.21 0 0 1-.9-.75 2.14 2.14 0 0 1-.35-1.26v-8.68Zm8.67 11a3.8 3.8 0 0 1-2.08-.56 3.84 3.84 0 0 1-1.38-1.57 5.32 5.32 0 0 1-.5-2.37c0-.9.17-1.7.5-2.38.33-.68.8-1.2 1.38-1.58a3.8 3.8 0 0 1 2.08-.56c.79 0 1.48.19 2.07.56.6.38 1.05.9 1.38 1.58.34.68.5 1.47.5 2.38 0 .9-.16 1.7-.5 2.37-.33.67-.79 1.2-1.38 1.57-.6.37-1.28.56-2.07.56Zm0-1.2c.6 0 1.09-.16 1.48-.46.38-.31.67-.71.85-1.21a4.8 4.8 0 0 0 0-3.26c-.18-.5-.47-.91-.85-1.22a2.28 2.28 0 0 0-1.48-.47c-.6 0-1.1.16-1.48.47-.39.31-.67.72-.86 1.22a4.8 4.8 0 0 0 0 3.26c.19.5.47.9.86 1.2.39.31.88.47 1.48.47Zm9.54 1.2a3.8 3.8 0 0 1-2.07-.56 3.93 3.93 0 0 1-1.39-1.57 5.32 5.32 0 0 1-.49-2.37c0-.9.17-1.7.5-2.38a3.8 3.8 0 0 1 1.38-1.58 3.8 3.8 0 0 1 2.07-.56c.8 0 1.48.19 2.07.56.6.38 1.06.9 1.39 1.58.33.68.5 1.47.5 2.38 0 .9-.17 1.7-.5 2.37a3.8 3.8 0 0 1-1.39 1.57c-.59.37-1.28.56-2.07.56Zm0-1.2c.6 0 1.1-.16 1.48-.46.39-.31.67-.71.86-1.21a4.8 4.8 0 0 0 0-3.26c-.19-.5-.47-.91-.86-1.22a2.28 2.28 0 0 0-1.48-.47c-.6 0-1.09.16-1.47.47-.39.31-.67.72-.86 1.22a4.77 4.77 0 0 0 0 3.26c.19.5.47.9.86 1.2.38.31.88.47 1.47.47Zm7.35-10.62V31h-1.34V19.36h1.34Zm6.25 2.91v1.14h-4.52v-1.14h4.52Zm-3.2-2.09h1.33v8.32c0 .38.06.66.17.85.11.19.26.31.43.38.18.06.37.09.56.09.15 0 .27 0 .37-.02l.22-.05.28 1.2a2.73 2.73 0 0 1-1 .16 2.7 2.7 0 0 1-1.12-.24 2.21 2.21 0 0 1-.9-.75 2.14 2.14 0 0 1-.35-1.26v-8.68ZM121.2 31v-8.73h1.34V31h-1.34Zm.68-10.18a.95.95 0 0 1-.68-.27.86.86 0 0 1-.28-.64c0-.25.1-.46.28-.64a.95.95 0 0 1 .68-.27c.26 0 .48.09.67.27.19.18.28.39.28.64s-.1.46-.28.64a.93.93 0 0 1-.67.27Zm3.11 13.45v-12h1.3v1.39h.16l.4-.58c.19-.24.44-.45.77-.64s.78-.28 1.35-.28a3.46 3.46 0 0 1 3.26 2.11c.31.68.47 1.47.47 2.39 0 .92-.16 1.72-.47 2.4a3.42 3.42 0 0 1-3.23 2.12 2.8 2.8 0 0 1-1.35-.28 2.5 2.5 0 0 1-.78-.64 8.77 8.77 0 0 1-.42-.6h-.12v4.61H125Zm1.32-7.63c0 .66.1 1.24.3 1.74.18.5.47.9.84 1.18.37.28.82.42 1.36.42a2.2 2.2 0 0 0 1.4-.45c.38-.3.67-.7.86-1.2.19-.5.29-1.07.29-1.7 0-.6-.1-1.16-.29-1.65-.18-.5-.47-.9-.84-1.18a2.2 2.2 0 0 0-1.42-.44 2.24 2.24 0 0 0-2.22 1.57 4.73 4.73 0 0 0-.28 1.7Z" fill="#fff"/></g><defs><filter id="a" x="0" y="0" width="153" height="48" filterUnits="userSpaceOnUse" color-interpolation-filters="sRGB"><feFlood flood-opacity="0" result="BackgroundImageFix"/><feColorMatrix in="SourceAlpha" values="0 0 0 0 0 0 0 0 0 0 0 0 0 0 0 0 0 0 127 0" result="hardAlpha"/><feOffset dy="2"/><feGaussianBlur stdDeviation="1.5"/><feColorMatrix values="0 0 0 0 0.2 0 0 0 0 0.2 0 0 0 0 0.2 0 0 0 0.15 0"/><feBlend in2="BackgroundImageFix" result="effect1_dropShadow_821_54474"/><feColorMatrix in="SourceAlpha" values="0 0 0 0 0 0 0 0 0 0 0 0 0 0 0 0 0 0 127 0" result="hardAlpha"/><feOffset dy="1"/><feGaussianBlur stdDeviation="1.5"/><feColorMatrix values="0 0 0 0 0.2 0 0 0 0 0.2 0 0 0 0 0.2 0 0 0 0.1 0"/><feBlend in2="effect1_dropShadow_821_54474" result="effect2_dropShadow_821_54474"/><feBlend in="SourceGraphic" in2="effect2_dropShadow_821_54474" result="shape"/></filter></defs></svg>
